X:1
T:Lord Randal
M:4/4
L:1/8
K:C
 C| CE Gcc-F G/2 G3/2| GG GC
M:4/4
| CE Gc c2-B-c|d-B GG G3 G| AG ABc-d eG| GA-G EE-D ED| CE Gc-AG-E C|\
D-E C2 C3||
